svg/m/BI.svg

<svg width="20" height="15" viewBox="0 0 20 15" fill="none" xmlns="http://www.w3.org/2000/svg">
<mask id="mask0" mask-type="alpha" maskUnits="userSpaceOnUse" x="0" y="0" width="20" height="15">
<rect width="20" height="15" fill="white"/>
</mask>
<g mask="url(#mask0)">
<rect width="20" height="15" rx="1.25" fill="#5EAA22"/>
<mask id="path-4-outside-1" maskUnits="userSpaceOnUse" x="-5" y="-2" width="30" height="19" fill="black">
<rect fill="white" x="-5" y="-2" width="30" height="19"/>
<path fill-rule="evenodd" clip-rule="evenodd" d="M10 7.5L20 0H0L10 7.5ZM10 7.5L0 15H20L10 7.5Z"/>
</mask>
<path fill-rule="evenodd" clip-rule="evenodd" d="M10 7.5L20 0H0L10 7.5ZM10 7.5L0 15H20L10 7.5Z" fill="#DD2C2B"/>
<path d="M20 0L20.9375 1.25L24.6875 -1.5625H20V0ZM0 0V-1.5625H-4.6875L-0.9375 1.25L0 0ZM0 15L-0.9375 13.75L-4.6875 16.5625H0V15ZM20 15V16.5625H24.6875L20.9375 13.75L20 15ZM19.0625 -1.25L9.0625 6.25L10.9375 8.75L20.9375 1.25L19.0625 -1.25ZM0 1.5625H20V-1.5625H0V1.5625ZM10.9375 6.25L0.9375 -1.25L-0.9375 1.25L9.0625 8.75L10.9375 6.25ZM9.0625 6.25L-0.9375 13.75L0.9375 16.25L10.9375 8.75L9.0625 6.25ZM0 16.5625H20V13.4375H0V16.5625ZM20.9375 13.75L10.9375 6.25L9.0625 8.75L19.0625 16.25L20.9375 13.75Z" fill="white" mask="url(#path-4-outside-1)"/>
<path fill-rule="evenodd" clip-rule="evenodd" d="M10 11.25C12.0711 11.25 13.75 9.57107 13.75 7.5C13.75 5.42893 12.0711 3.75 10 3.75C7.92893 3.75 6.25 5.42893 6.25 7.5C6.25 9.57107 7.92893 11.25 10 11.25Z" fill="white"/>
<path fill-rule="evenodd" clip-rule="evenodd" d="M10.1044 6.51794L9.36968 6.90422L9.51 6.08608L8.91559 5.50667H9.73704L10.1044 4.64294L10.4718 5.50667H11.2932L10.6988 6.08608L10.8391 6.90422L10.1044 6.51794Z" fill="#DD2C2B"/>
<path fill-rule="evenodd" clip-rule="evenodd" d="M8.3513 9.01794L7.61656 9.40422L7.75689 8.58608L7.16248 8.00667H7.98393L8.3513 7.14294L8.71866 8.00667H9.54012L8.94571 8.58608L9.08603 9.40422L8.3513 9.01794Z" fill="#DD2C2B"/>
<path fill-rule="evenodd" clip-rule="evenodd" d="M11.8514 9.01794L11.1166 9.40422L11.2569 8.58608L10.6625 8.00667H11.484L11.8514 7.14294L12.2187 8.00667H13.0402L12.4458 8.58608L12.5861 9.40422L11.8514 9.01794Z" fill="#DD2C2B"/>
</g>
</svg>

<svg width="20" height="15" fill="none" xmlns="http://www.w3.org/2000/svg">
  <mask id="a" maskUnits="userSpaceOnUse" x="0" y="0" width="20" height="15">
    <path fill="#fff" d="M0 0h20v15H0z"/>
  </mask>
  <g mask="url(#a)">
    <rect width="20" height="15" rx="1.25" fill="#5EAA22"/>
    <mask id="b" maskUnits="userSpaceOnUse" x="-5" y="-2" width="30" height="19" fill="#000">
      <path fill="#fff" d="M-5-2h30v19H-5z"/>
      <path fill-rule="evenodd" clip-rule="evenodd" d="M10 7.5L20 0H0l10 7.5zm0 0L0 15h20L10 7.5z"/>
    </mask>
    <path fill-rule="evenodd" clip-rule="evenodd" d="M10 7.5L20 0H0l10 7.5zm0 0L0 15h20L10 7.5z" fill="#DD2C2B"/>
    <path d="M20 0l.938 1.25 3.75-2.813H20V0zM0 0v-1.563h-4.688l3.75 2.813L0 0zm0 15l-.938-1.25-3.75 2.813H0V15zm20 0v1.563h4.688l-3.75-2.813L20 15zm-.938-16.25l-10 7.5 1.876 2.5 10-7.5-1.875-2.5zM0 1.563h20v-3.125H0v3.125zM10.938 6.25l-10-7.5-1.875 2.5 10 7.5 1.874-2.5zm-1.876 0l-10 7.5 1.875 2.5 10-7.5-1.874-2.5zM0 16.563h20v-3.125H0v3.124zm20.938-2.813l-10-7.5-1.876 2.5 10 7.5 1.875-2.5z" fill="#fff" mask="url(#b)"/>
    <path fill-rule="evenodd" clip-rule="evenodd" d="M10 11.25a3.75 3.75 0 100-7.5 3.75 3.75 0 000 7.5z" fill="#fff"/>
    <path fill-rule="evenodd" clip-rule="evenodd" d="M10.104 6.518l-.734.386.14-.818-.594-.58h.821l.367-.863.368.864h.821l-.594.58.14.817-.735-.386zm-1.753 2.5l-.734.386.14-.818-.595-.58h.822l.367-.863.368.864h.821l-.594.58.14.817-.735-.386zm3.5 0l-.734.386.14-.818-.595-.58h.822l.367-.863.368.864h.821l-.594.58.14.817-.735-.386z" fill="#DD2C2B"/>
  </g>
</svg>
